X: 145
T:The Pride of Rathmore
R:reel
C:traditional
S:Manus McGuire, Gaelic Roots 2003
O:Irish
Z:alf 
M:C|
L:1/8
Q:1/4=100
K:Edor
E3 (F G2)EF|GBA(G FDD)F|EDEF GFGB|dBA=c BEE2 :|
efed Bdef|geag fddf|efed (3Bcd eg|fedB e2 ed|
(3Bcd ed (3Bcd ef| geag fddf|gfge dfed|Bded BEED||
GBdg (3ege dB|AD (3FED FGA=c|BE ED GFGB|dBA=c BE E2:|
